X: 10372
T: HARVEST HOME
R: reel, hornpipe
B: K\"ohler's Violin Repository, v.1, 1885 p.37 #2
F: http://www.archive.org/details/klersviolinrepos01edin
Z: 2011 John Chambers <jc:trillian.mit.edu>
M: C|
L: 1/8
K: D
(uFE) | DAFA DAFA | (ef)ed (dc)BA | eAfA gAfA | (3efd (3cdB (3ABG (3FGE |
DAFA DAFA | (df)ed (dc)BA | Aceg faAc | d2f2d2 |]
(ucd) |\
eAAA fAAA | gAAA fAAA | eAfA gAfA | (3efd (3cdB (3ABG (3FGE |
D>d d/d/d (cd)ec | A>d d/d/d (cd)ec | (df)ed (cA)Bc | "_D.C."d2f2"_Fine."d2 |]

%%sep 2 1 500

